X:1
T:G Major        Amos Pilsbury, 1799
T:Nahum Tate and Nicholas Brady, 1698 Revised by Francis Hopkinson, 1767 (Psalm 99)                      666. 666. 666.
T:Potomac
T:Transcribed from  The United States Sacred Harmony, 1799.
%%score [ 1 2 3 4 ]
L:1/8
Q:1/4=120
M:2/2
K:G
V:1 treble nm="Tr." snm="Tr."
V:2 treble nm="C." snm="C."
V:3 treble-8 nm="T." snm="T."
V:4 bass nm="B." snm="B."
V:1
"^1. {" B4 |: d6 d2 | e6 d>c | B6 A2 | (B3 c d2) B2 | e4 d4 |1 d4 B4 :|2 d4"^}" d4 || %8
w: Je-|ho- vah|reigns, let *|all The|guil- * * ty|na- tions|quake; On|* In|
w: |che- rub's|wings he *|sits, Let|earth's * * foun-|da- tions||shake; *|
 (B3 c B2) A2 | (B2 c2) (d2 A2) | B6 B2 | (B2 e2) (g2 e2) | d4 d4 | !fermata!d6 d2 | c2 c2 B2 A2 | %15
w: Zi- * * on|he * is *|great, A-|bove * all *|peo- ple|high; O|praise his ho- ly|
w: |||||||
 B6 d2 | e2 e2 d2 c2 | d6 G2 | (B3 c d2) e2 | (d2 B2) (A2 B2) | (B2 A4) G2 | (B3 A B2) e2 | d4 d4 | %23
w: name, O|praise his ho- ly|name, Who|dwells * * a-|bove * the *|sky, * In|aw- * * ful|ma- jes-|
w: ||||||||
 B8 |] %24
w: ty.|
w: |
V:2
"^2. {" D4 |: G6 G2 | G6 D2 | G6 A2 | (B3 A G2) G2 | (A2 G2) F4 |1 G4 D4 :|2 G4"^}" G4 || %8
w: For|truth and|jus- tice|still, Of|strength * * and|power * take|place; His|* There-|
w: |right- eous|judg- ments|are Dis-|pensed * * to|Ja- * cob's||race: *|
 (G3 A B2) A2 | (D2 E2) (F2 A2) | G6 [DG]2 | (G2 A2) (B2 G2) | G4 A4 | !fermata!B6 B>A | %14
w: fore * * ex-|alt * the *|Lord, Be-|fore * his *|foot- stool|fall In *|
w: ||||||
 G2 G2 G2 E2 | G6 A2 | G2 G2 G2 E2 | D6 D2 | (D3 E F2) A2 | (G2 D2) (E2 D2) | D6 D2 | %21
w: a- do- ra- tion|low; In|a- do- ra- tion|low; And|with * * his|power, * let *|all His|
w: |||||||
 (G3 A B2) G2 | G4 A4 | G8 |] %24
w: ho- * * li-|ness ex-|tol.|
w: |||
V:3
"^3. {" G4 |: (B3 c B2) A2 | G6 B>c | d6 c2 | (B3 A B2) d2 | (c2 B2) A4 |1 G4 G4 :|2 G4"^}" B4 || %8
w: Mo-|ses * * and|Aa- ron *|thus, A-|mongst * * his|priests * a-|dores, Sam–|* Be-|
w: |–uel * * his|pro- phet *|too, He|heard, * * when|they * im-||plored. *|
 (d3 e d2) c2 | (B2 A2) (B2 c2) | d6 G2 | (G2 B2) (d2 c2) | B4 A4 | !fermata!B6 B2 | e2 e2 d2 ^c2 | %15
w: fore * * the|camp, * their *|guide, The|clou- * dy *|pil- lar|moved; They|kept and laws and|
w: |||||||
 d6 A>B | c2 c2 B2 A2 | B6 d2 | (G3 F G2) A2 | (B2 d2) (c2 B2) | (B2 A4) B2 | (d3 e d2) c2 | %22
w: they, They *|keot his laws and|they O-|be- * * dient|ser- * vants *|proved, * His|or- * * di-|
w: |||||||
 B4 A4 | G8 |] %24
w: nance they|loved.|
w: ||
V:4
"^4. {" G,,4 |: (G,3 F, G,2) D,2 | E,6 G,,2 | D,6 F,2 | G,6 G,2 | C,4 D,4 |1 G,,4 G,,4 :|2 %7
w: He|heard, * * and|oft for-|gave His|peo- ple|for their|sake, And|
w: |those * * who|them op-|pressed, Did|sad ex-|am- ples||
 G,,4"^}" [G,,G,]4 || G,6 F,2 | (G,2 [D,F,]2) (F,2 A,2) | D,6 D,2 | E,4 D,4 | G,4 D,4 | %13
w: * Then,|in his|sa- * cred *|courts Due|praise to|him af-|
w: make; *||||||
 !fermata!G,,6 D,2 | G,2 G,2 G,2 G,2 | D,6 D,2 | E,2 E,2 E,2 [D,F,]2 | G,6 G,2 | (G,3 A, B,2) A,2 | %19
w: ford, For|he who ho- ly|is, For|hw who ho- ly|is, A-|lone * * should|
w: ||||||
"^__________________________________________________________________________________________________________________\nEdited by B. C. Johnston, 2018.     1. Measure 4, Counter: last note changed from G to A.     2. Measure 10, Bass: third note changed from G to F#.\n   3. Measure 17, Treble: last note changed from C# to C.     4. Measure 21, grace quarter-notes converted to normal quarter-notes in Treble and Tenor." G,4 G,,4 | %20
w: be a-|
w: |
 D,6 D,2 | (G,3 A, G,2) C,2 | D,4 D,4 | G,,8 |] %24
w: dored: Ye|saints, * * praise|ye the|Lord.|
w: ||||

